!!!COM: Scarlatti, Domenico
!!!CDT: 1685-1757
!!!OTL: Sonata in A major, L.342, K.220
!!!SCT: K. 220
!!!SCT: L. 342
!!!OMD: Allegro ([quarter-dot]=80)
**kern	**kern	**dynam
*staff2	*staff1	*staff1/2
*Icemba	*Icemba	*
*I"L.342 (K.220)	*I"L.342 (K.220)	*
*>[A,A,B,B]	*>[A,A,B,B]	*>[A,A,B,B]
*>norep[A,B]	*>norep[A,B]	*>norep[A,B]
*>A	*>A	*>A
*clefF4	*clefG2	*
*k[f#c#g#]	*k[f#c#g#]	*
*A:	*A:	*
*M3/8	*M3/8	*
*MM132	*MM132	*
=1-	=1-	=1-
8AA	8r	f
8r	8aa'L	.
8r	8cc#' 8ee'J	p
=2	=2	=2
4.r	8cc# (8eeL	.
.	8dd 8ff#)	.
.	8b' 8dd'J	.
=3	=3	=3
4.r	8b (8ddL	.
.	8cc# 8ee)	.
.	8a' 8cc#'J	.
=4	=4	=4
4.r	8a (8cc#L<	.
.	8b 8dd)	.
.	8e' 8b'J	.
=5	=5	=5
8r	4cc#	.
8a'L	.	.
8c#' 8e'J	8r	.
=6	=6	=6
8c# (8eL	8r	<
8d 8f#)	8r	.
8B' 8d'J	[8ff#~	.
!!LO:LB:g=z
=7	=7	=7
8B (8dL	8ff#]	.
8c# 8e)	[4ee~	.
8A' 8c#'J	.	.
=8	=8	=8
8A (8c#L	8eeL]	.
.	(16ddqq	.
8B 8d)	(8.ddT)	.
8E' 8B'J	.	.
.	32cc#LL	.
.	32ddJJJ	.
=9	=9	=9
*	*^	*
4AA 4A	8cc#L	4cc#	f
.	8aa)	.	.
[8D [8d	8ff#'J	8dd	.
=10	=10	=10	=10
8D] 8d]	8dd'L	8b	.
4E 4e	(8b	4g#	.
.	8eeJ)	.	.
=11	=11	=11	=11
4AA 4A	(8cc#L	4cc#	.
.	8aa)	.	.
[8D [8d	8ff#'J	8dd	.
=12	=12	=12	=12
8D] 8d]	8dd'L	8b	.
4E 4e	(8b	4g#	.
.	8eeJ)	.	.
*	*v	*v	*
=13	=13	=13
8r	(8cc#L	>
8r	8a)	]]
(<[8d	8f#'J	mf
!!LO:LB:g=z
=14	=14	=14
*^	*	*
8ryy	8B) 8d]	8dd'L	.
4B	(8G#L	(8.ddT	.
.	8EJ	.	.
.	.	32cc#LL	.
.	.	32ddJJJ	]
*v	*v	*	*
=15	=15	=15
8A')	8cc#L	<
8r	8a)	.
(<[8d	8f#'J	.
=16	=16	=16
*^	*	*
8ryy	8B) 8d]	8dd'L	.
4B	(8G#L	(8.ddT	.
.	8EJ	.	.
.	.	32cc#LL	.
.	.	32ddJJJ	.
*v	*v	*	*
=17	=17	=17
8AL	4cc#)	.
8B)	.	.
8c#J	8aa'	.
=18	=18	=18
.	(16gg#qq	.
(8dL	8ff#L)	.
8e)	(16eeL	.
.	16dd	.
8E'J	16cc#	.
.	16bJJ	.
=19	=19	=19
*^	*	*
4.A	8AA'L	8cc#L)	f
.	8BB'	8dd'	.
.	8C#'J	8ee'J	.
*v	*v	*	*
!!LO:LB:g=z
=20	=20	=20
8D'L	(16ddLL<	.
.	16cc#	.
8D'	16b	.
.	16a	.
8D#'J	16g#	.
.	16f#JJ	.
=21	=21	=21
4.E	4.e)MM<	.
=22||	=22||	=22||
*k[]	*k[]	*k[]
8EL	4.r	sf
8E 8e	.	p
8E' 8e'J	.	.
=23	=23	=23
8F (8eL	8r	>
.	(16ffqLL	.
.	16ggqJJ	.
8F 8d)	()[4aa	] sf
8F' 8c'J	.	p
=24	=24	=24
8G' 8c'L	8aaL]	.
!	!LO:TUP:r=8	!
8G' 8c'	24ggL	<
.	24ff	.
.	24eeJ	.
8G' 8B'J	24ffL	.
.	24ee	.
.	24ddJJ	.
=25	=25	=25
8C' 8c'L	8ee')	[
8F' 8f'	8r	p
8F' 8f'J	8r	.
!!LO:LB:g=z
=26	=26	=26
8G (8fL	8r	>
.	(16ggqLL	.
.	16aaqJJ	.
8G 8e)	([4bb-)	] sf
8G' 8d'J	.	p
=27	=27	=27
8A' 8d'L	8bb-L]	.
!	!LO:TUP:r=8	!
8A' 8d'	24aaL	<
.	24gg	.
.	24ffJ	.
8A' 8c#'J	24ggL	.
.	24ff	.
.	24eeJJ	.
=28	=28	=28
8D' 8d'L	8ff')	[
8G' 8g'	8r	.
8G' 8g'J	8r	.
=29	=29	=29
8A (8gL	8r	>
.	(16aaqLL	.
.	16bbqJJ	.
8A 8f#)	([4ccc)	] f
8A' 8e'J	.	.
=30	=30	=30
8B' 8e'L	8cccL]	.
*	*Xtuplet	*
8B' 8e'	24bbL	.
.	24aa	.
.	24gg#J	.
8B' 8d#'J	24aaL	.
.	24gg#	.
.	24ff#JJ	.
!!LO:LB:g=z
=31	=31	=31
*^	*	*
(4E	((4.E	16gg#LL	.
.	.	16aa	.
.	.	16bb	.
.	.	16aa	.
[8e	.	16bb	.
.	.	16eeJJ	.
=32	=32	=32	=32
8e]	4.F)	16ddLL	.
.	.	16ee	.
4d)	.	16ff	.
.	.	16ee	.
.	.	16ff	.
.	.	16aJJ	.
=33	=33	=33	=33
(4EE	(4.EE	(16g#LL)	.
.	.	16a	.
.	.	16b	.
.	.	16a	.
[8E	.	16b	.
.	.	16eJJ	.
=34	=34	=34	=34
8E]	4.FF)	16dLL	.
.	.	16e	.
4D)	.	16f	.
.	.	16e	.
.	.	16f	.
.	.	16AJJ	.
*v	*v	*	*
=35	=35	=35
.	(16Aqq	.
4.EE	8.G#L)m<	>
.	16F#k	.
.	8EJ)	]
!!LO:LB:g=z
=36	=36	=36
(16ELL	8r	p
!	!	!LO:HP:b=2
16F#	.	<
16G#	8ee'L	.
16A	.	.
16B	8cc'J	.
16cJJ	.	.
=37	=37	=37
16dLL	(8bL	[ <
!	!	!LO:HP:b=2
16e	.	>
16fn	8dd)	.
16e	.	.
16d	8ccJ	.
16cJJ	.	.
=38	=38	=38
16BLL	8b'L	]
16A	.	.
16G#	(8.ccT	.
16F#	.	.
16E	.	.
16DJJ	32bLL	.
.	32ccJJJ	.
=39	=39	=39
16ELL	8bL	.
!	!	!LO:HP:b=2
.	.	<
16F#	.	.
16G#	8ee)	.
16A	.	.
16B	8cc'J	.
16cJJ	.	[[
!!LO:LB:g=z
=40	=40	=40
!	!	!LO:HP:b=2
16dLL	(8bL	>
16e	.	.
16fn	8dd)	.
16e	.	.
16d	8cc'J	.
16cJJ	.	]
=41	=41	=41
16BLL	8b'L	.
16A	.	[
16G#	(8.ccT	<
16F#	.	.
16E	.	.
16DJJ	32bLL	.
.	32ccJJJ	[[
=42	=42	=42
8E 8G# 8BL)	16bLL	mf
.	16a	p
8E~ 8G# 8B	16g#	<
.	16a	.
8E' 8G#' 8B'J	16b	.
.	16ccJJ	[
=43	=43	=43
8D 8A 8BL	16ddLL	.
.	16ee	>
8D 8A 8B	16ff	.
.	16ee	.
8D 8A 8BJ	16dd	.
.	16ccJJ	]
!!LO:LB:g=z
=44	=44	=44
8D 8A 8BL	16bLL	.
.	16a	.
8D 8A 8B	16g#	.
.	16f#	.
8D 8A 8BJ	16e	.
.	16d#JJ	.
=45	=45	=45
8E 8G# 8BL	16eLL	]
.	16f#	.
8E 8G# 8B	16g#	<
.	16a	.
8E 8G# 8BJ	16b	.
.	16ccJJ	[[
=46	=46	=46
8D 8A 8BL	16ddLL	>
.	16ee	.
8D 8A 8B	16ffn	.
.	16ee	.
8D 8A 8BJ	16dd	.
.	16ccJJ	]]
=47	=47	=47
8D 8A 8BL	16bLL	.
.	16a	.
8D 8A 8B	16g#	.
.	16f#	.
8D 8A 8BJ	16e	.
.	16d#JJ	]
!!LO:LB:g=z
=48	=48	=48
8E 8G# 8BL	16eLL	<
.	16f#	.
8E 8G# 8B	16g#	.
.	16a	.
8E 8G# 8BJ	16b	.
.	16ccJJ	.
=49	=49	=49
8D 8F 8Gn 8BL	16ddLL	.
.	16ee	.
8D 8F 8G 8B	16ffn	.
.	16gg	.
8D 8F 8G 8BJ	16aa	.
.	16bbJJ	.
=50	=50	=50
8C'L	16cccLL	f
.	16bb	.
8D'	16aa	.
.	16gg	.
8E'J	16ff	.
.	16eeJJ	.
=51	=51	=51
(8FL	16ddLL<	.
.	16cc	.
8G)	16b	.
.	16a	.
8GG'J	16g	.
.	16fJJ	.
!!LO:LB:g=z
=52	=52	=52
8C'L	4e)	p
8C' 8c'	.	.
8C' 8c'J	8r	.
=53	=53	=53
8D (8cL	8r	>
8D 8B)	(8.ff#tL	]
8D' 8A'J	.	.
.	32eeLL	.
.	32ff#JJJ	.
=54	=54	=54
(8GL	4gg)	<
8D 8d)	.	.
8D' 8d'J	8r	.
=55	=55	=55
8E (8dL	8r	.
8E 8c)	(8.gg#tL	.
8E' 8B'J	.	.
.	32ff#LL	.
.	32gg#JJJ	.
=56	=56	=56
(8AL	4aa)	.
8E 8e)	.	.
8E' 8e'J	8r	.
=57	=57	=57
8F# (8eL	8r	f
8F# 8d#)	(8.aa#tL	.
8F#' 8c#'J	.	.
.	32gg#LL	.
.	32aa#JJJ	.
!!LO:LB:g=z
=58	=58	=58
*^	*	*
4d#	8BL	16bbLL	.
.	.	16aan	.
.	8B	16ggn	.
.	.	16ff#	.
8rg	8BJ	16ee	.
.	.	16dd#JJ	.
=59	=59	=59	=59
4c	8BL	16ccnLL	.
.	.	16b	.
.	8B	16a	.
.	.	16g	.
8rg	8BJ	16f#	.
.	.	16eJJ	.
*v	*v	*	*
=60	=60	=60
(16BLL	8d#'L)	.
16A	.	.
16G	8e'	.
16F#	.	.
16E	8f#'J	.
16DJJ	.	.
=61	=61	=61
16CLL	4g	.
16BB	.	.
16AA	.	.
16GG	.	.
16FF#	8a'	.
16EEJJ	.	.
=62	=62	=62
.	(8aqq	.
4.BBB)	4.b)	.
!!LO:LB:g=z
=63||	=63||	=63||
*k[f#c#g#]	*k[f#c#g#]	*k[f#c#g#]
(8BL	8r	p
.	(16f#qq	.
8c#	(>8.f#LT)	.
8d#J	.	.
.	32eLL	.
.	32f#JJJ	.
=64	=64	=64
8e'L)	24g#LL	.
.	24f#	.
.	24g#J	.
8f#'	24aL	.
.	24g#	.
.	24aJ	.
8g#'J	8b'J)	.
=65	=65	=65
(8BL	8r	<
.	(16f#qq	.
8c#	(8.f#TL)	.
8d#J	.	.
.	32eLL	.
.	32f#JJJ	.
*clefG2	*	*
=66	=66	=66
8e'L)	24g#LL	.
.	24f#	.
.	24g#J	.
8f#'	24aL	.
.	24g#	.
.	24aJ	.
8g#'J	24bL	.
.	24a	.
.	24bJJ	.
!!LO:LB:g=z
=67	=67	=67
8a'L	24cc#LL	.
.	24b	.
.	24cc#J	.
8b'	24dd#L	.
.	24cc#	.
.	24dd#J	.
8cc#'J	24eeL	.
.	24dd#	.
.	24eeJJ	.
=68	=68	=68
(8dd#L	24ff#LL	f
.	24aa	.
.	24gg#J	.
8b)	24aaL	.
.	24gg#	.
.	24ff#J	.
8ee'J	24gg#L	.
.	24ff#	.
.	24eeJJ	.
=69	=69	=69
8a'L	24aaLL	.
.	24gg#	.
.	24ff#J	.
8b'	24gg#L	.
.	24ff#	.
.	24eeJ	.
*clefF4	*	*
8B'J	24ff#L	.
.	24ee	.
.	24dd#JJ)	.
!!LO:LB:g=z
=70	=70	=70
.	(8dd#qq	.
4.E	4.ee)	.
=71	=71	=71
(8BL	8r	p
.	(16f#qq	.
8c#	(>8.f#TL)	.
8d#J	.	.
.	32eLL	.
.	32f#JJJ	.
=72	=72	=72
8e'L)	24g#LL	.
.	24f#	.
.	24g#J	.
8f#'	24aL	.
.	24g#	.
.	24aJ	.
8g#'J	8b'>J)	.
=73	=73	=73
(8BL	8r	<
.	(16f#qq	.
8c#	(8.f#TL)	.
8d#J	.	.
.	32eLL	.
.	32f#JJJ	.
*clefG2	*	*
!!LO:LB:g=z
=74	=74	=74
8e'L)	24g#LL	.
.	24f#	.
.	24g#J	.
8f#'	24aL	.
.	24g#	.
.	24aJ	.
8g#J	24bL	.
.	24a	.
.	24bJJ	.
=75	=75	=75
8a'L	24cc#LL	.
.	24b	.
.	24cc#J	.
8b'	24dd#L	.
.	24cc#	.
.	24dd#J	.
8cc#'J	24eeL	.
.	24dd#	.
.	24eeJJ	.
=76	=76	=76
8dd#'L	24ff#LL	f
.	24aa	.
.	24gg#J	.
8b'	24aaL	.
.	24gg#	.
.	24ff#J	.
8ee'J	24gg#L	.
.	24ff#	.
.	24eeJJ	.
!!LO:LB:g=z
=77	=77	=77
(8aL	24aaLL	.
.	24gg#	.
.	24ff#	.
8b)	24gg#	.
.	24ff#	.
.	24ee	.
*clefF4	*	*
8B'J	24ff#	.
.	24ee	.
.	24dd#JJ	.
=78	=78	=78
4E	8eeL	.
.	8bb)	.
8G#'	8b'J	.
=79	=79	=79
4A	(8cc#L	.
.	8ee)	.
8B'	8f#'J	.
=80	=80	=80
4E	(8g#L	.
.	8b)	.
8G#'	8B'J	.
!!LO:LB:g=z
=81	=81	=81
(8AL	(8cc#L	.
8B)	8e)	.
8BB'J	8d#'J	.
=82	=82	=82
4E	8e'	.
.	8bb'L	p
8G#'	8b'J	.
=83	=83	=83
4A	(8cc#'L	.
.	8ee)	.
8B'	8f#'J	.
=84	=84	=84
4E	(8g#L	.
.	8b)	.
8G#'	8B'J	.
=85	=85	=85
(8AL	(8cc#L	.
8B)	8e)	.
8BB'J	8d#'J	.
=86	=86	=86
4E	4e	.
8r	8r	.
!!LO:LB:g=z
=87:|!|:	=87:|!|:	=87:|!|:
*>B	*>B	*>B
*k[]	*k[]	*k[]
8EL	4.r	sf
8E' 8e'	.	p
8E' 8e'J	.	.
=88	=88	=88
8F (8eL	8r	>
.	(16fqLL	.
.	16gqJJ	]
8F 8d)	([>4az>)	.
8F' 8c'J	.	p
=89	=89	=89
8G' 8c'L	8aL]	.
8G' 8c'	24gL	.
.	24f	<
.	24eJ	.
8G' 8B'J	24fL	.
.	24e	.
.	24dJJ	.
=90	=90	=90
(8cL	8e')	[
8F 8f)	8r	p
8F' 8f'J	8r	.
=91	=91	=91
8G (8fL	8r	>
.	(16gqLL	.
.	16aqJJ	.
8G 8e)	(>/[4b-z)	]
8G' 8d'J	.	p
!!LO:LB:g=z
=92	=92	=92
8A' 8d'L	8b-XL]	.
8A' 8d'	24aL	<
.	24g	.
.	24fJ	.
8A' 8c#'J	24gL	.
.	24f	.
.	24eJJ	.
=93	=93	=93
*	*^	*
4D 4d	8f')	8ryy	[
.	8aa'L	8ryy	.
8d	8ff'J	8dd	mf
=94	=94	=94	=94
*^	*	*	*
4d	(8B-L	4dd	(8b-L	.
.	8G)	.	8g)	.
8r	8A'J	8ee'	8cc#J	.
*v	*v	*	*	*
=95	=95	=95	=95
4D 4d	(8ffL	8dd	.
.	8aa)	8r	.
8d'	8ff'J	8dd'	.
=96	=96	=96	=96
*^	*	*	*
4d	(8B-L	4dd	(8b-L	.
.	8G)	.	8g)	.
8r	8A'J	8ee'	8cc#'J	.
*v	*v	*	*	*
*	*v	*v	*
!!LO:LB:g=z
=97	=97	=97
(8DL	4dd 4ff	.
8a)	.	.
8d' 8f'J	([8dd	f
=98	=98	=98
*^	*	*
4d	(8B-L	4dd]	.
.	8G)	.	.
8c#	8AJ	24eeLL	.
.	.	24ff	.
.	.	24ggJJ	.
*v	*v	*	*
=99	=99	=99
(8DL	24ffLL	.
.	24ee	.
.	24ddJJ)	.
8a)	([4dd	.
8d' 8f'J	.	.
=100	=100	=100
*^	*	*
4d	(8B-L	4dd]	.
.	8G)	.	.
8c#'	8A'J	24eeLL	.
.	.	24ff	.
.	.	24ggJJ	.
*v	*v	*	*
=101	=101	=101
*	*^	*
(8DL	8ryy	24ffLL	.
.	.	24ee	.
.	.	24ddJJ	.
8d)	[4ff)	8ffL	.
8cn'J	.	8a-'J	.
!!LO:LB:g=z
=102	=102	=102	=102
4B	8ffL]	4g^	mf
.	(16eeL	.	.
.	16dd	.	.
8G'	16cc	8ryy	.
.	16bJJ	.	.
=103	=103	=103	=103
4.A- 4.c	8ccL	8ryy	.
.	8gg)	8ryy	.
.	8ee-'J	8cc'	.
=104	=104	=104	=104
*^	*	*	*
4c	(8A-L	4cc	(8a-L	.
.	8F)	.	8f)	.
8ryy	8G'J	8dd'	8b'J	.
*v	*v	*	*	*
=105	=105	=105	=105
4.C	(8ee-L	4cc	.
.	8gg)	.	.
.	8ee-'J	8cc'	.
=106	=106	=106	=106
*^	*	*	*
4c	(8A-L	4cc	(8a-L	.
.	8F)	.	8f)	.
8ryy	8G'J	8dd'	8b'J	.
*v	*v	*	*	*
*	*v	*v	*
!!LO:LB:g=z
=107	=107	=107
(8CL	4cc 4ee-	.
8g)	.	.
8c' 8e-'J	([8cc	f
=108	=108	=108
*^	*	*
4c	(8A-L	4cc]	.
.	8F)	.	.
8B'	8GJ	24ddLL	.
.	.	24ee-	.
.	.	24ffJJ	.
*v	*v	*	*
=109	=109	=109
(8C 8cL	24ee-LL	.
.	24dd	.
.	24ccJJ)	.
8g)	([4cc	.
8c' 8e-'J	.	.
=110	=110	=110
*^	*	*
4c	(8A-L	4cc]	.
.	8F)	.	.
8B'	8G'J	24ddLL	.
.	.	24ee-	.
.	.	24ffJJ	.
=111	=111	=111	=111
*	*	*^	*
4.c	(8CL	8ee-L	4cc	.
.	8D)	8ff)	.	.
.	8E-'J	([8ggJ	(8b-	.
*v	*v	*	*	*
!!LO:LB:g=z
=112	=112	=112	=112
(8FL	8ggL]	4.a)	.
8G)	16ffL	.	mf
.	16ee-	.	.
8An'J	16dd	.	.
.	16ccJJ	.	.
=113	=113	=113	=113
*^	*	*	*
4.B-	(8BB-L	4dd)	(16ddLL	.
.	.	.	16cc	.
.	8C)	.	16b-	.
.	.	.	16a	.
.	8D'J	([8ff	16g	.
.	.	.	16fJJ	.
*v	*v	*	*	*
=114	=114	=114	=114
(8EnL	8ffL]	4.g)	.
8F)	16eenL	.	.
.	16dd	.	.
8G'J	16cc	.	.
.	16b-JJ	.	.
=115	=115	=115	=115
*^	*	*	*
4.A	(8AAL	4cc)	(16ccLL	.
.	.	.	16b-	.
.	8BB-)	.	16a	.
.	.	.	16g	.
.	8C'J	([8ee	16f	.
.	.	.	16eJJ	.
*v	*v	*	*	*
=116	=116	=116	=116
(8DL	8eeL]	4.f)	.
8E)	16ddL	.	.
.	16cc	.	.
8F'J	16b-	.	.
.	16aJJ	.	.
!!LO:LB:g=z
=117	=117	=117	=117
*^	*	*	*
4.G	(8GGL	4b-)	(16b-LL	.
.	.	.	16a	.
.	8AA)	.	16g	.
.	.	.	16f	.
.	8BB-'>J	([8dd	16e	.
.	.	.	16dJJ	.
*v	*v	*	*	*
=118	=118	=118	=118
(8CL	8ddL]	4.e)	.
8D)	16ccL	.	.
.	16b-	.	.
8E'J	16a	.	.
.	16gJJ	.	.
*	*v	*v	*
=119	=119	=119
*^	*	*
4.F	(8FFL	16aLL	.
.	.	16g	.
.	8GG)	16f	.
.	.	16e	.
.	8AA'>J	16d	.
.	.	16cJJ	.
*v	*v	*	*
*	*clefF4	*clefF4
=120	=120	=120
(4.BB-	16B-LL	.
.	16A	.
.	16G	.
.	16F	.
.	16E	.
.	16DJJ	.
!!LO:LB:g=z
=121	=121	=121
4.CC)	4.C)MM<	.
=122	=122	=122
8Cz>'L	4.r	.
8C' 8c'	.	p
8C' 8c'J	.	.
*	*clefG2	*clefG2
=123	=123	=123
8D (8cL	8r	.
8D 8B-)	(8.f#tL	.
8D' 8A'J	.	.
.	32eLL	.
.	32f#JJJ	.
=124	=124	=124
(8GL	4g)	<
8D 8d)	.	.
8D' 8d'J	8r	.
=125	=125	=125
8E (8dL	8r	.
8E 8c)	(8.g#tL	.
8E' 8Bn'J	.	.
.	32f#LL	.
.	32g#JJJ	.
=126	=126	=126
(8AL	4a)	.
8F 8f)	.	.
8F' 8f'J	8r	.
!!LO:LB:g=z
=127	=127	=127
8G (8fL	8r	.
8G 8e)	(8.btL<	.
8G' 8d'J	.	.
.	32aLL	.
.	32bJJJ	.
=128	=128	=128
(8cL	4cc)	.
8G 8g)	.	.
8G' 8g'J	8r	.
=129	=129	=129
8A (8gL	8r	.
8A 8f)	(8.cc#tL	.
8A' 8e'J	.	.
.	32bLL	.
.	32cc#JJJ	.
=130	=130	=130
(8dL	4dd)	.
8A 8a)	.	.
8A' 8a'J	8r	.
=131	=131	=131
8B (8aL	8r	f
8B 8g#)	(8.dd#tL	.
8B' 8f#'J	.	.
.	32cc#LL	.
.	32dd#JJJ	.
!!LO:LB:g=z
=132	=132	=132
8eL	16eeLL	.
.	16ddn	.
8e	16ccn	.
.	16b	.
8eJ	16a	.
.	16g#JJ)	.
=133	=133	=133
*^	*	*
4fn	8eL	(16ffLL	.
.	.	16ee	.
.	8e	16dd	.
.	.	16cc	.
8ryy	8e^J	16b	.
.	.	16aJJ	.
*v	*v	*	*
=134	=134	=134
(16eLL	8g#'L)	.
16d	.	.
16c	8a'	.
16B	.	.
16A	8b'J	.
16G#JJ	.	.
=135	=135	=135
16ALL	4cc	.
16Gn	.	.
16F	.	.
16E	.	.
16D	8dd'	.
16CJJ	.	.
=136	=136	=136
.	(8ddqq	.
4.EE)	4.ee)	.
!!LO:LB:g=z
=137||	=137||	=137||
*k[f#c#g#]	*k[f#c#g#]	*k[f#c#g#]
(8EL	8r	p
.	(16Bqq	.
8F#	(8.BTL)	.
8G#J	.	.
.	32ALL	.
.	32BJJJ	.
=138	=138	=138
8A'L)	24c#LL	.
.	24B	.
.	24c#J	.
8B'	24dL	.
.	24c#	.
.	24dJ	.
8c#'J	8e'J)	.
=139	=139	=139
(8EL	8r	<
.	(16Bqq	.
8F#	(8.BTL)	.
8G#J	.	.
.	32ALL	.
.	32BJJJ	.
=140	=140	=140
8A'L)	24c#LL	.
.	24B	.
.	24c#J	.
8B'	24dL	.
.	24c#	.
.	24dJ	.
8c#'J	24eL	.
.	24d	.
.	24eJJ	.
!!LO:LB:g=z
=141	=141	=141
8d'L	24f#LL	.
.	24e	.
.	24f#J	.
8e'	24g#L	.
.	24f#	.
.	24g#J	.
8f#'J	24aL	.
.	24g#	.
.	24aJJ	.
*clefG2	*	*
=142	=142	=142
8g#'L	24bLL	.
.	24a	.
.	24bJ	.
8a'	24cc#L	.
.	24b	.
.	24cc#J	.
8b'J	24ddL	.
.	24cc#	.
.	24ddJJ	.
=143	=143	=143
8cc#'L	24eeLL	.
.	24dd	.
.	24eeJ	.
8dd'	24ff#L	.
.	24ee	.
.	24ff#J	.
8ee'J	24gg#L	.
.	24ff#	.
.	24gg#JJ	.
!!LO:LB:g=z
=144	=144	=144
8ff#'L	8aa'L)	f
8dd'	8ff#'	.
8b'J	8dd'J	.
=145	=145	=145
(8g#L	(8bL>	>
8a)	8cc#)	]]
8f#'J	8a'J	>
*clefF4	*	*
=146	=146	=146
8d'L	8f#'L	.
8B'	8d'	.
8G#'J	8B'J	.
=147	=147	=147
(8AL	(24c#LL	p
!	!	!LO:HP:a
.	24B	<
.	24c#J	.
8B	24dL	.
.	24c#	.
.	24dJ	.
8c#'J)	8e'J)	[
=148	=148	=148
8D'L	8B' 8d'L	mf
8E'	8A' 8c#'	.
8EE'J	8G#' 8B'J	.
!!LO:LB:g=z
=149	=149	=149
.	(8Bqq	.
4.AA	4.A)	.
=150	=150	=150
(8EL	8r	p
.	(16Bqq	.
8F#	()8.BTL	.
8G#J	.	.
.	32ALL	.
.	32BJJJ	.
=151	=151	=151
8AL)	24c#LL	.
.	24B	.
.	24c#J	.
8B'	24dL	.
.	24c#	.
.	24dJ	.
8c#'J	8e'J)	.
=152	=152	=152
(8EL	8r	<
.	(16Bqq	.
8F#	(8.BTL)	.
8G#J	.	.
.	32ALL	.
.	32BJJJ	.
=153	=153	=153
8AL)	24c#LL	.
.	24B	.
.	24c#J	.
8B'	24dL	.
.	24c#	.
.	24dJ	.
8c#'J	24eL	.
.	24d	.
.	24eJJ	.
!!LO:LB:g=z
=154	=154	=154
8d'L	24f#LL	.
.	24e	.
.	24f#J	.
8e'	24g#L	.
.	24f#	.
.	24g#J	.
8f#'J	24aL	.
.	24g#	.
.	24aJJ	.
*clefG2	*	*
=155	=155	=155
8g#'L	24bLL	.
.	24a	.
.	24bJ	.
8a'	24cc#L	.
.	24b	.
.	24cc#J	.
8b'J	24ddL	.
.	24cc#	.
.	24ddJJ	.
=156	=156	=156
8cc#'L	24eeLL	.
.	24dd	.
.	24eeJ	.
8dd'	24ff#L	.
.	24ee	.
.	24ff#J	.
8ee'J	24gg#L	.
.	24ff#	.
.	24gg#JJ	.
!!LO:LB:g=z
=157	=157	=157
8ff#'L	8aa'L)	f
8dd'	8ff#'	.
8b'J	8dd'J	.
=158	=158	=158
(8g#L	(8bL	>
8a)	8cc#)	.
8f#'J	8a'J	]
*clefF4	*	*
=159	=159	=159
8d'L	8f#'L	>
8B'	8d'	.
8G#'J	8B'J	.
=160	=160	=160
*	*	*^
!	!	!LO:HP:a	!
(8AL	(24c#LL	<	p
.	24B	.	.
.	24c#J	.	.
8B	24dL	.	.
.	24c#	.	.
.	24dJ	.	.
8c#'J)	8e'J)	[	.
*	*	*v	*v
=161	=161	=161
8D'L	8B' 8d'L	mf
8E'	8A' 8c#'	.
8EE'J	8G#' 8B'J	.
!!LO:LB:g=z
=162	=162	=162
(8AAL	(8eL	f
8BB)	8ee)	.
8C#'J	8e'J	.
=163	=163	=163
(8DL	4f# 4dd	.
8E)	.	.
8EE'J	8g#' 8b'	.
=164	=164	=164
(8AAL	(8a 8cc#L>	.
8BB)	8aa)	.
8C#'J	8e'J	.
=165	=165	=165
(8DL	4f# 4dd	.
8E)	.	.
8EE'J	8g#' 8b'	.
=166	=166	=166
(8AAL	8a'/ 8cc#'/	.
8BB)	8ccc#'L\	.
8C#'J	8e'J/	.
=167	=167	=167
(8DL	4f# 4dd	.
8E)	.	.
8EE'J	8g#' 8b'	.
!!LO:LB:g=z
=168	=168	=168
(8AL	(24cc#LL	.
.	24b	.
.	24cc#J	.
8B	24ddL	.
.	24cc#	.
.	24ddJ	.
8c#'J)	8eeJ)	.
=169	=169	=169
8d'L	8b' 8dd'L	.
8e'	8a' 8cc#'	.
8E'J	8g#' 8b'J	.
=170	=170	=170
(8AAL	(24c#LL	.
.	24B	.
.	24c#J	.
8BB	24dL	.
.	24c#	.
.	24dJ	.
8C#'J)	8e'J)	.
=171	=171	=171
.	(8eq	.
8D'L	8B' 8d'L)	.
8E'	8A' 8c#'	.
8EE'J	8G#' 8B'J	.
=172	=172	=172
4AA	4A	.
8r	8r	.
==:|!	==:|!	==:|!
*-	*-	*-
!!!RDF**kern: > = above
!!!RDF**kern: < = below
!!!verovio: beamFrenchStyle 1
!!!URL-vhv: https://verovio.humdrum.org/?file=scarlatti/sonatas/L342K220.krn
!!!URL-pdf: https://github.com/craigsapp/scarlatti-keyboard-sonatas/blob/master/reference-edition/L342K220.pdf
!!!URL-youtube: https://www.youtube.com/watch?v=ukL5bIGGl9E Scott Ross, harpsichord
!!!URL-youtube: https://www.youtube.com/watch?v=0jMa5z3lMYU Orion Weiss, piano
!!!PTL: Domenico Scarlatti: Opere complete per clavicembalo
!!!PED: Longo, Alessandro
!!!PPR: Ricordi
!!!PPP: Milan
!!!PDT: 1906-1913
!!!YEC: 2021 Craig Stuart Sapp
!!!YEM: Licence: (CC BY-NC-SA 4.0) https://creativecommons.org/licenses/by-nc-sa/4.0
!!!ENC: Craig Stuart Sapp
!!!END: 2004/11/03
!!!EED: Craig Stuart Sapp
!!!EEV: 2021/06/16
